groups/oxygen/cbz-benzyloxycarbonyl.svg

<?xml version='1.0' encoding='iso-8859-1'?>
<svg version='1.1' baseProfile='full'
              xmlns='http://www.w3.org/2000/svg'
                      xmlns:rdkit='http://www.rdkit.org/xml'
                      xmlns:xlink='http://www.w3.org/1999/xlink'
                  xml:space='preserve'
width='256px' height='256px' viewBox='0 0 256 256'>
<!-- END OF HEADER -->
<rect style='opacity:1.0;fill:#FFFFFF;stroke:none' width='256.0' height='256.0' x='0.0' y='0.0'> </rect>
<path class='bond-0 atom-0 atom-1' d='M 23.3,131.2 L 60.0,110.2' style='fill:none;fill-rule:evenodd;stroke:#000000;stroke-width:2.0px;stroke-linecap:butt;stroke-linejoin:miter;stroke-opacity:1' />
<path class='bond-1 atom-1 atom-2' d='M 63.1,112.1 L 63.2,82.1' style='fill:none;fill-rule:evenodd;stroke:#000000;stroke-width:2.0px;stroke-linecap:butt;stroke-linejoin:miter;stroke-opacity:1' />
<path class='bond-1 atom-1 atom-2' d='M 56.8,112.0 L 56.9,82.0' style='fill:none;fill-rule:evenodd;stroke:#000000;stroke-width:2.0px;stroke-linecap:butt;stroke-linejoin:miter;stroke-opacity:1' />
<path class='bond-2 atom-1 atom-3' d='M 60.0,110.2 L 87.5,126.2' style='fill:none;fill-rule:evenodd;stroke:#000000;stroke-width:2.0px;stroke-linecap:butt;stroke-linejoin:miter;stroke-opacity:1' />
<path class='bond-3 atom-3 atom-4' d='M 105.5,126.3 L 133.1,110.5' style='fill:none;fill-rule:evenodd;stroke:#000000;stroke-width:2.0px;stroke-linecap:butt;stroke-linejoin:miter;stroke-opacity:1' />
<path class='bond-4 atom-4 atom-5' d='M 133.1,110.5 L 169.6,131.7' style='fill:none;fill-rule:evenodd;stroke:#000000;stroke-width:2.0px;stroke-linecap:butt;stroke-linejoin:miter;stroke-opacity:1' />
<path class='bond-5 atom-5 atom-6' d='M 169.6,131.7 L 206.3,110.7' style='fill:none;fill-rule:evenodd;stroke:#000000;stroke-width:2.0px;stroke-linecap:butt;stroke-linejoin:miter;stroke-opacity:1' />
<path class='bond-5 atom-5 atom-6' d='M 176.0,135.4 L 206.3,118.1' style='fill:none;fill-rule:evenodd;stroke:#000000;stroke-width:2.0px;stroke-linecap:butt;stroke-linejoin:miter;stroke-opacity:1' />
<path class='bond-6 atom-6 atom-7' d='M 206.3,110.7 L 242.8,132.0' style='fill:none;fill-rule:evenodd;stroke:#000000;stroke-width:2.0px;stroke-linecap:butt;stroke-linejoin:miter;stroke-opacity:1' />
<path class='bond-7 atom-7 atom-8' d='M 242.8,132.0 L 242.7,174.2' style='fill:none;fill-rule:evenodd;stroke:#000000;stroke-width:2.0px;stroke-linecap:butt;stroke-linejoin:miter;stroke-opacity:1' />
<path class='bond-7 atom-7 atom-8' d='M 236.5,135.6 L 236.3,170.6' style='fill:none;fill-rule:evenodd;stroke:#000000;stroke-width:2.0px;stroke-linecap:butt;stroke-linejoin:miter;stroke-opacity:1' />
<path class='bond-8 atom-8 atom-9' d='M 242.7,174.2 L 206.0,195.2' style='fill:none;fill-rule:evenodd;stroke:#000000;stroke-width:2.0px;stroke-linecap:butt;stroke-linejoin:miter;stroke-opacity:1' />
<path class='bond-9 atom-9 atom-10' d='M 206.0,195.2 L 169.5,174.0' style='fill:none;fill-rule:evenodd;stroke:#000000;stroke-width:2.0px;stroke-linecap:butt;stroke-linejoin:miter;stroke-opacity:1' />
<path class='bond-9 atom-9 atom-10' d='M 206.0,187.9 L 175.8,170.3' style='fill:none;fill-rule:evenodd;stroke:#000000;stroke-width:2.0px;stroke-linecap:butt;stroke-linejoin:miter;stroke-opacity:1' />
<path class='bond-10 atom-10 atom-5' d='M 169.5,174.0 L 169.6,131.7' style='fill:none;fill-rule:evenodd;stroke:#000000;stroke-width:2.0px;stroke-linecap:butt;stroke-linejoin:miter;stroke-opacity:1' />
<path d='M 58.1,111.3 L 60.0,110.2 L 61.3,111.0' style='fill:none;stroke:#000000;stroke-width:2.0px;stroke-linecap:butt;stroke-linejoin:miter;stroke-miterlimit:10;stroke-opacity:1;' />
<path d='M 131.7,111.3 L 133.1,110.5 L 135.0,111.5' style='fill:none;stroke:#000000;stroke-width:2.0px;stroke-linecap:butt;stroke-linejoin:miter;stroke-miterlimit:10;stroke-opacity:1;' />
<path d='M 204.5,111.8 L 206.3,110.7 L 208.1,111.8' style='fill:none;stroke:#000000;stroke-width:2.0px;stroke-linecap:butt;stroke-linejoin:miter;stroke-miterlimit:10;stroke-opacity:1;' />
<path d='M 241.0,130.9 L 242.8,132.0 L 242.8,134.1' style='fill:none;stroke:#000000;stroke-width:2.0px;stroke-linecap:butt;stroke-linejoin:miter;stroke-miterlimit:10;stroke-opacity:1;' />
<path d='M 242.7,172.1 L 242.7,174.2 L 240.8,175.3' style='fill:none;stroke:#000000;stroke-width:2.0px;stroke-linecap:butt;stroke-linejoin:miter;stroke-miterlimit:10;stroke-opacity:1;' />
<path d='M 207.8,194.2 L 206.0,195.2 L 204.2,194.2' style='fill:none;stroke:#000000;stroke-width:2.0px;stroke-linecap:butt;stroke-linejoin:miter;stroke-miterlimit:10;stroke-opacity:1;' />
<path d='M 171.3,175.0 L 169.5,174.0 L 169.5,171.9' style='fill:none;stroke:#000000;stroke-width:2.0px;stroke-linecap:butt;stroke-linejoin:miter;stroke-miterlimit:10;stroke-opacity:1;' />
<path class='atom-1' d='M33.7946,149.542 C35.1693,148.755 34.1196,146.922 32.7449,147.71 C31.3702,148.497 30.3205,146.664 31.6952,145.877 C33.0699,145.089 32.0201,143.256 30.6454,144.044 C29.2708,144.831 28.221,142.998 29.5957,142.211 C30.9704,141.424 29.9207,139.591 28.546,140.378 C27.1713,141.165 26.1216,139.332 27.4962,138.545 C28.8709,137.758 27.8212,135.925 26.4465,136.712 C25.0718,137.499 24.0221,135.666 25.3968,134.879 C26.7715,134.092 25.7217,132.259 24.3471,133.046 C22.9724,133.834 21.9226,132.001 23.2973,131.213 C24.672,130.426 23.6223,128.593 22.2476,129.38 C20.8729,130.168 19.8232,128.335 21.1979,127.548 C22.5725,126.76 21.5228,124.927 20.1481,125.715 C18.7734,126.502 17.7237,124.669 19.0984,123.882 C20.4731,123.094 19.4233,121.261 18.0487,122.049 C16.674,122.836 15.6242,121.003 16.9989,120.216 C18.3736,119.429 17.3239,117.596 15.9492,118.383 C14.5745,119.17 13.5248,117.337 14.8995,116.55 C16.2741,115.763 15.2244,113.93 13.8497,114.717 C12.475,115.504 11.4253,113.672 12.8,112.884' style='fill:none;stroke:#7F7F7F;stroke-width:2.0px;stroke-linecap:butt;stroke-linejoin:miter;stroke-opacity:1' />
<text x='52.5' y='80.6' class='atom-2' style='font-size:25px;font-style:normal;font-weight:normal;fill-opacity:1;stroke:none;font-family:sans-serif;text-anchor:start;fill:#000000' >O</text>
<text x='88.9' y='144.1' class='atom-3' style='font-size:25px;font-style:normal;font-weight:normal;fill-opacity:1;stroke:none;font-family:sans-serif;text-anchor:start;fill:#000000' >O</text>
</svg>

<svg height="256" viewBox="0 0 256 256" width="256" xmlns="http://www.w3.org/2000/svg"><path d="m0 0h256v256h-256z" fill="#fff"/><g fill="none" stroke-width="2"><path d="m23.3 131.2 36.7-21" stroke="#000"/><path d="m63.1 112.1.1-30" stroke="#000"/><path d="m56.8 112 .1-30" stroke="#000"/><path d="m60 110.2 27.5 16" stroke="#000"/><path d="m105.5 126.3 27.6-15.8" stroke="#000"/><path d="m133.1 110.5 36.5 21.2" stroke="#000"/><path d="m169.6 131.7 36.7-21" stroke="#000"/><path d="m176 135.4 30.3-17.3" stroke="#000"/><path d="m206.3 110.7 36.5 21.3" stroke="#000"/><path d="m242.8 132-.1 42.2" stroke="#000"/><path d="m236.5 135.6-.2 35" stroke="#000"/><path d="m242.7 174.2-36.7 21" stroke="#000"/><path d="m206 195.2-36.5-21.2" stroke="#000"/><path d="m206 187.9-30.2-17.6" stroke="#000"/><path d="m169.5 174 .1-42.3" stroke="#000"/><path d="m58.1 111.3 1.9-1.1 1.3.8" stroke="#000" stroke-miterlimit="10"/><path d="m131.7 111.3 1.4-.8 1.9 1" stroke="#000" stroke-miterlimit="10"/><path d="m204.5 111.8 1.8-1.1 1.8 1.1" stroke="#000" stroke-miterlimit="10"/><path d="m241 130.9 1.8 1.1v2.1" stroke="#000" stroke-miterlimit="10"/><path d="m242.7 172.1v2.1l-1.9 1.1" stroke="#000" stroke-miterlimit="10"/><path d="m207.8 194.2-1.8 1-1.8-1" stroke="#000" stroke-miterlimit="10"/><path d="m171.3 175-1.8-1v-2.1" stroke="#000" stroke-miterlimit="10"/><path d="m33.795 149.542c1.374-.787.325-2.62-1.05-1.832-1.375.787-2.424-1.046-1.05-1.833 1.375-.788.325-2.621-1.05-1.833-1.374.787-2.424-1.046-1.049-1.833 1.374-.787.325-2.62-1.05-1.833s-2.424-1.046-1.05-1.833c1.375-.787.325-2.62-1.049-1.833-1.375.787-2.425-1.046-1.05-1.833s.325-2.62-1.05-1.833c-1.375.788-2.424-1.045-1.05-1.833 1.375-.787.325-2.62-1.049-1.833-1.375.788-2.425-1.045-1.05-1.832 1.375-.788.325-2.621-1.05-1.833-1.375.787-2.424-1.046-1.05-1.833 1.375-.788.325-2.621-1.049-1.833-1.375.787-2.425-1.046-1.05-1.833s.325-2.62-1.05-1.833c-1.374.787-2.424-1.046-1.049-1.833 1.374-.787.324-2.62-1.05-1.833-1.375.787-2.425-1.045-1.05-1.833" stroke="#7f7f7f"/></g><text font-family="sans-serif" font-size="25" x="52.5" y="80.6">O</text><text font-family="sans-serif" font-size="25" x="88.9" y="144.1">O</text></svg>
